X:1
T:002 - Justo Ã‰s Senhor
T:Letra (Adap.) JoÃ£o Gomes da Rocha (1861-1947)
T:MÃºsica: Lowell Mason (1792-1872)
L:1/4
M:4/4
I:linebreak $
K:Abmaj
W:
W:
W:Justo Ã©s, Senhor, nos teus santos caminhos;
W:Ã‰s digno em todas as tuas obras;
W:Eis perto estÃ¡s dos que te invocam,
W:De todos que te invocam em verdade!
W:Aleluia! Aleluia!
W:
V:1
"Ab"C2 C C | C2 C C | "Eb"E2 D D | "Ab"C2 C2 | "Fm"A2 A A | "Gm"G2 "Ab"F E | "Bb7"E2 =D2 | "Eb"E2 E2 :||: "Eb"z2 "Db"z z | "Cm"z2 "Bbm"z z | "Ab"A2 "Ab7"^F F | "Db"=F2 "Ab/C"E2 | "Bbm"D2 "Eb"E2 | "Ab"C2 "Ab/C"E E | "Db"F G A "Eb"B | "Ab"c2 "Fm"B A | "Bbm/Db"A2 "Eb7"G2 | "Ab"A2 A2 :|| z2 A A | c2 "Ab/C"A2 | z2 E E | "Db"F4 | "Ab"E4 |] %41
w:Jus-toÃ©s, Se-nhor, nos teus san-tos ca-mi-nhos; Ã‰s dig-noem to-das as tu-as o-bras; Eis per-toes-tÃ¡s dos que tein-vo-cam, De to-dos que tein-vo-cam_ em ver-da-de! A-le-lui-a! A-le-lui-a!

